dist/images/icon-book.svg

<svg width="40" height="40" viewBox="0 0 40 40" fill="none" xmlns="http://www.w3.org/2000/svg">
<path d="M28.3333 11.6667H11.6667V13.3333H28.3333V11.6667ZM28.3333 15H11.6667V16.6667H28.3333V15ZM21.6667 18.3333H11.6667V20H21.6667V18.3333ZM36.7367 26.0633C36.8367 26.4883 36.275 26.7533 36.085 26.3033C35.8583 25.7533 35.4917 23.4133 35.1733 21.06C35.0017 19.8 33.3283 19.955 33.3333 21.2567C33.3383 23.2817 33.3367 24.97 33.3333 27.9683C33.33 30.5267 34.495 30.5767 35.355 33.4467C35.5017 33.94 35.6283 34.4767 35.7317 35.0017L40 33.51C38.5117 30.5983 39.23 28.3 39.3783 26.4183C39.5817 23.8467 38.8983 23.5967 35.725 20.505C35.915 21.865 36.3117 24.28 36.7367 26.0633ZM4.275 20.5067C1.10167 23.5967 0.418333 23.8483 0.621667 26.42C0.77 28.3 1.48833 30.5983 0 33.51L4.27 35C4.37333 34.4767 4.5 33.9383 4.64667 33.445C5.505 30.5767 6.67 30.525 6.66667 27.9667C6.66333 24.9667 6.66167 23.28 6.66667 21.255C6.67167 19.9533 4.99667 19.7983 4.82667 21.0583C4.51 23.4117 4.14167 25.7517 3.915 26.3017C3.72667 26.7533 3.165 26.4867 3.26333 26.0617C3.68833 24.28 4.085 21.865 4.275 20.5067ZM8.33333 28.3333L8.34 25H31.66L31.6667 28.3333H8.33333ZM5 18.635V7.5C5 6.12 6.12 5 7.5 5H32.5C33.88 5 35 6.12 35 7.5V18.635C34.77 18.5683 34.53 18.5267 34.2733 18.5267C33.59 18.525 32.92 18.8033 32.4367 19.2883C31.955 19.7717 31.6883 20.4317 31.665 21.1517V8.33333H8.33333V21.1483C8.31 20.4283 8.04333 19.77 7.56167 19.2867C7.07833 18.8017 6.41 18.525 5.725 18.525C5.47167 18.525 5.23167 18.5683 5 18.635Z" fill="white"/>
</svg>

<svg width="40" height="40" fill="none" xmlns="http://www.w3.org/2000/svg"><path d="M28.333 11.667H11.667v1.666h16.666v-1.666Zm0 3.333H11.667v1.667h16.666V15Zm-6.666 3.333h-10V20h10v-1.667Zm15.07 7.73c.1.425-.462.69-.652.24-.227-.55-.593-2.89-.912-5.243-.171-1.26-1.845-1.105-1.84.197.005 2.025.004 3.713 0 6.711-.003 2.559 1.162 2.609 2.022 5.479.147.493.273 1.03.377 1.555L40 33.51c-1.488-2.912-.77-5.21-.622-7.092.204-2.571-.48-2.821-3.653-5.913.19 1.36.587 3.775 1.012 5.558ZM4.275 20.507C1.102 23.597.418 23.848.622 26.42c.148 1.88.866 4.178-.622 7.09L4.27 35c.103-.523.23-1.062.377-1.555.858-2.868 2.023-2.92 2.02-5.478-.004-3-.005-4.687 0-6.712.005-1.302-1.67-1.457-1.84-.197-.317 2.354-.685 4.694-.912 5.244-.188.451-.75.185-.652-.24.425-1.782.822-4.197 1.012-5.555Zm4.058 7.826L8.34 25h23.32l.007 3.333H8.333ZM5 18.635V7.5A2.5 2.5 0 0 1 7.5 5h25A2.5 2.5 0 0 1 35 7.5v11.135a2.586 2.586 0 0 0-.727-.108 2.603 2.603 0 0 0-1.836.761c-.482.484-.749 1.144-.772 1.864V8.333H8.333v12.815c-.023-.72-.29-1.378-.771-1.861a2.607 2.607 0 0 0-1.837-.762c-.253 0-.493.043-.725.11Z" fill="#fff"/></svg>
